; generated by Slic3r 1.0.0RC3 on 2014-10-27 at 13:48:06

; layer_height = 0.3
; perimeters = 3
; top_solid_layers = 3
; bottom_solid_layers = 2
; fill_density = 0.4
; perimeter_speed = 30
; infill_speed = 40
; travel_speed = 130
; nozzle_diameter = 0.4
; filament_diameter = 2.94
; extrusion_multiplier = 1
; perimeters extrusion width = 0.40mm
; infill extrusion width = 0.42mm
; solid infill extrusion width = 0.42mm
; top infill extrusion width = 0.42mm
; first layer extrusion width = 0.60mm

G21 ; set units to millimeters
G92 X100 Y100 Z0
G90 ; use absolute coordinates
G92 E0
M82 ; use absolute distances for extrusion
G1 F1800.000 E-1.00000
G92 E0
G1 Z0.300 F7800.000
G1 X86.590 Y77.470 F7800.000
G1 E1.00000 F1800.000
G1 X87.590 Y76.360 E1.03678 F540.000
G1 X88.790 Y75.490 E1.07327
G1 X96.130 Y71.250 E1.28195
G1 X96.630 Y70.990 E1.29582
G1 X97.470 Y70.590 E1.31872
G1 X98.100 Y70.320 E1.33560
G1 X98.750 Y70.120 E1.35234
G1 X99.640 Y69.890 E1.37497
G1 X100.790 Y69.690 E1.40371
G1 X101.690 Y69.610 E1.42595
G1 X102.350 Y69.590 E1.44221
G1 X102.970 Y69.610 E1.45748
G1 X103.890 Y69.690 E1.48021
G1 X105.050 Y69.890 E1.50919
G1 X105.940 Y70.120 E1.53182
G1 X106.590 Y70.320 E1.54856
G1 X107.220 Y70.590 E1.56543
G1 X108.040 Y70.980 E1.58779
G1 X109.010 Y71.540 E1.61536
G1 X109.780 Y72.070 E1.63837
G1 X110.300 Y72.460 E1.65438
G1 X110.780 Y72.900 E1.67041
G1 X111.440 Y73.560 E1.69338
G1 X111.870 Y74.030 E1.70907
G1 X112.260 Y74.540 E1.72487
G1 X112.780 Y75.290 E1.74734
G1 X113.350 Y76.280 E1.77546
G1 X113.750 Y77.120 E1.79837
G1 X114.020 Y77.750 E1.81524
G1 X114.220 Y78.400 E1.83198
G1 X114.450 Y79.290 E1.85461
G1 X114.650 Y80.460 E1.88383
G1 X114.730 Y81.390 E1.90681
G1 X114.730 Y82.610 E1.93685
G1 X111.440 Y120.930 E2.88368
G1 X111.200 Y122.230 E2.91622
G1 X110.730 Y123.460 E2.94864
G1 X110.050 Y124.580 E2.98090
G1 X109.160 Y125.560 E3.01349
G1 X108.110 Y126.360 E3.04598
G1 X106.930 Y126.950 E3.07846
G1 X105.660 Y127.310 E3.11096
G1 X104.350 Y127.430 E3.14334
G1 X92.350 Y127.430 E3.43876
G1 X90.960 Y127.300 E3.47313
G1 X89.630 Y126.890 E3.50739
G1 X88.400 Y126.240 E3.54164
G1 X87.320 Y125.350 E3.57609
G1 X86.430 Y124.270 E3.61054
G1 X85.780 Y123.040 E3.64479
G1 X85.370 Y121.710 E3.67905
G1 X85.240 Y120.320 E3.71342
G1 X85.240 Y81.650 E4.66540
G1 X85.390 Y80.170 E4.70202
G1 X85.850 Y78.760 E4.73854
G1 X86.548 Y77.542 E4.77309
G1 X87.040 Y77.800 F7800.000
G1 X87.960 Y76.780 E4.80691 F540.000
G1 X89.070 Y75.970 E4.84073
G1 X96.410 Y71.730 E5.04941
G1 X96.870 Y71.490 E5.06219
G1 X97.710 Y71.090 E5.08509
G1 X98.290 Y70.850 E5.10054
G1 X98.890 Y70.660 E5.11604
G1 X99.780 Y70.430 E5.13867
G1 X100.840 Y70.250 E5.16513
G1 X101.740 Y70.170 E5.18738
G1 X102.350 Y70.140 E5.20241
G1 X103.840 Y70.250 E5.23919
G1 X104.910 Y70.430 E5.26591
G1 X105.800 Y70.660 E5.28854
G1 X106.400 Y70.850 E5.30403
G1 X106.980 Y71.090 E5.31948
G1 X107.800 Y71.480 E5.34184
G1 X108.700 Y72.000 E5.36742
G1 X109.470 Y72.530 E5.39044
G1 X109.940 Y72.890 E5.40501
G1 X110.390 Y73.290 E5.41983
G1 X111.050 Y73.950 E5.44281
G1 X111.440 Y74.390 E5.45729
G1 X111.800 Y74.850 E5.47167
G1 X112.320 Y75.600 E5.49413
G1 X112.850 Y76.520 E5.52027
G1 X113.250 Y77.360 E5.54318
G1 X113.490 Y77.940 E5.55863
G1 X113.680 Y78.540 E5.57412
G1 X113.910 Y79.430 E5.59675
G1 X114.090 Y80.510 E5.62371
G1 X114.170 Y81.440 E5.64669
G1 X114.170 Y82.560 E5.67426
G1 X110.880 Y120.880 E6.62109
G1 X110.620 Y122.240 E6.65518
G1 X110.070 Y123.520 E6.68948
G1 X109.270 Y124.650 E6.72356
G1 X108.250 Y125.590 E6.75771
G1 X107.050 Y126.300 E6.79203
G1 X105.730 Y126.730 E6.82621
G1 X104.350 Y126.880 E6.86038
G1 X92.350 Y126.880 E7.15580
G1 X91.070 Y126.750 E7.18747
G1 X89.840 Y126.380 E7.21909
G1 X88.710 Y125.770 E7.25071
G1 X87.710 Y124.960 E7.28239
G1 X86.900 Y123.960 E7.31407
G1 X86.290 Y122.830 E7.34568
G1 X85.920 Y121.600 E7.37730
G1 X85.790 Y120.320 E7.40897
G1 X85.790 Y81.650 E8.36096
G1 X85.940 Y80.290 E8.39464
G1 X86.360 Y78.980 E8.42851
G1 X86.998 Y77.872 E8.45998
G1 F1800.000 E7.45998
G92 E0
G1 X99.371 Y81.032 F7800.000
G1 E1.00000 F1800.000
G1 X99.816 Y80.159 E1.02412 F540.000
G1 X100.509 Y79.466 E1.04824
G1 X101.382 Y79.021 E1.07237
G1 X102.117 Y78.905 E1.09067
G1 X102.350 Y78.868 E1.09649
G1 X103.318 Y79.021 E1.12061
G1 X104.191 Y79.466 E1.14473
G1 X104.884 Y80.159 E1.16885
G1 X105.329 Y81.032 E1.19297
G1 X105.482 Y82.000 E1.21710
G1 X105.329 Y82.968 E1.24122
G1 X104.884 Y83.841 E1.26534
G1 X104.191 Y84.534 E1.28946
G1 X103.318 Y84.979 E1.31358
G1 X102.350 Y85.132 E1.33770
G1 X101.382 Y84.979 E1.36183
G1 X100.509 Y84.534 E1.38595
G1 X99.816 Y83.841 E1.41007
G1 X99.371 Y82.968 E1.43419
G1 X99.218 Y82.000 E1.45831
G1 X99.358 Y81.115 E1.48038
G1 X99.908 Y81.207 F7800.000
G1 X100.273 Y80.491 E1.50016 F540.000
G1 X100.841 Y79.923 E1.51993
G1 X101.557 Y79.558 E1.53971
G1 X102.204 Y79.455 E1.55584
G1 X102.350 Y79.432 E1.55949
G1 X103.143 Y79.558 E1.57926
G1 X103.859 Y79.923 E1.59904
G1 X104.427 Y80.491 E1.61882
G1 X104.792 Y81.207 E1.63860
G1 X104.918 Y82.000 E1.65838
G1 X104.792 Y82.793 E1.67815
G1 X104.427 Y83.509 E1.69793
G1 X103.859 Y84.077 E1.71771
G1 X103.143 Y84.442 E1.73749
G1 X102.350 Y84.568 E1.75726
G1 X101.557 Y84.442 E1.77704
G1 X100.841 Y84.077 E1.79682
G1 X100.273 Y83.509 E1.81660
G1 X99.908 Y82.793 E1.83637
G1 X99.782 Y82.000 E1.85615
G1 X99.895 Y81.289 E1.87387
G1 X100.444 Y81.381 F7800.000
G1 X100.729 Y80.822 E1.88930 F540.000
G1 X101.172 Y80.379 E1.90474
G1 X101.731 Y80.094 E1.92017
G1 X102.291 Y80.006 E1.93413
G1 X102.350 Y79.996 E1.93560
G1 X102.969 Y80.094 E1.95104
G1 X103.528 Y80.379 E1.96647
G1 X103.971 Y80.822 E1.98190
G1 X104.256 Y81.381 E1.99734
G1 X104.354 Y82.000 E2.01277
G1 X104.256 Y82.619 E2.02820
G1 X103.971 Y83.178 E2.04364
G1 X103.528 Y83.621 E2.05907
G1 X102.969 Y83.906 E2.07450
G1 X102.350 Y84.004 E2.08994
G1 X101.731 Y83.906 E2.10537
G1 X101.172 Y83.621 E2.12080
G1 X100.729 Y83.178 E2.13624
G1 X100.444 Y82.619 E2.15167
G1 X100.346 Y82.000 E2.16710
G1 X100.431 Y81.463 E2.18048
G1 X100.094 Y80.948 F7800.000
G1 X100.291 Y78.702 F7800.000
G1 X101.023 Y78.354 E2.20042 F540.000
G1 X101.676 Y78.179 E2.21708
G1 X102.350 Y78.120 E2.23373
G1 X103.024 Y78.179 E2.25038
G1 X103.677 Y78.354 E2.26703
G1 X104.290 Y78.639 E2.28368
G1 X104.844 Y79.027 E2.30034
G1 X105.323 Y79.506 E2.31699
G1 X105.711 Y80.060 E2.33364
G1 X105.996 Y80.673 E2.35029
G1 X106.171 Y81.326 E2.36694
G1 X106.230 Y82.000 E2.38359
G1 X106.171 Y82.674 E2.40025
G1 X105.996 Y83.327 E2.41690
G1 X105.711 Y83.940 E2.43355
G1 X105.323 Y84.494 E2.45020
G1 X104.844 Y84.973 E2.46685
G1 X104.239 Y85.396 E2.48503
G1 X102.936 Y86.149 E2.52209
G1 X102.936 Y118.907 E3.32854
G1 X93.764 Y118.907 E3.55433
G1 X93.764 Y82.470 E4.45135
G1 X100.219 Y78.743 E4.63483
G1 X100.013 Y78.219 F7800.000
G1 X100.832 Y77.828 E4.65717 F540.000
G1 X101.579 Y77.628 E4.67622
G1 X102.350 Y77.560 E4.69527
G1 X103.121 Y77.628 E4.71432
G1 X103.868 Y77.828 E4.73338
G1 X104.570 Y78.155 E4.75243
G1 X105.204 Y78.599 E4.77148
G1 X105.751 Y79.146 E4.79053
G1 X106.195 Y79.780 E4.80958
G1 X106.522 Y80.482 E4.82863
G1 X106.722 Y81.229 E4.84768
G1 X106.790 Y82.000 E4.86674
G1 X106.722 Y82.771 E4.88579
G1 X106.522 Y83.518 E4.90484
G1 X106.195 Y84.220 E4.92389
G1 X105.751 Y84.854 E4.94294
G1 X105.204 Y85.401 E4.96199
G1 X104.539 Y85.866 E4.98197
G1 X103.493 Y86.470 E5.01171
G1 X103.493 Y119.464 E5.82396
G1 X93.207 Y119.464 E6.07717
G1 X93.207 Y82.148 E6.99582
G1 X99.940 Y78.261 E7.18722
G1 X99.734 Y77.737 F7800.000
G1 X100.640 Y77.303 E7.21196 F378.000
G1 X101.482 Y77.077 E7.23341
G1 X102.350 Y77.001 E7.25486
G1 X103.218 Y77.077 E7.27631
G1 X104.060 Y77.303 E7.29776
G1 X104.849 Y77.671 E7.31922
G1 X105.563 Y78.171 E7.34067
G1 X106.179 Y78.787 E7.36212
G1 X106.679 Y79.501 E7.38357
G1 X107.047 Y80.290 E7.40502
G1 X107.273 Y81.132 E7.42647
G1 X107.349 Y82.000 E7.44792
G1 X107.273 Y82.868 E7.46937
G1 X107.047 Y83.710 E7.49082
G1 X106.679 Y84.499 E7.51228
G1 X106.179 Y85.213 E7.53373
G1 X105.563 Y85.829 E7.55518
G1 X104.839 Y86.337 E7.57695
G1 X104.050 Y86.792 E7.59937
G1 X104.050 Y120.021 E8.41742
G1 X92.650 Y120.021 E8.69806
G1 X92.650 Y81.827 E9.63834
G1 X99.662 Y77.779 E9.83766
G1 X100.202 Y78.040 F7800.000
G1 X98.836 Y79.997 F7800.000
G1 X98.852 Y80.013 E9.83822 F720.000
G1 X98.744 Y80.698 E9.85546
G1 X98.333 Y80.287 E9.86989
G1 X97.829 Y80.578 E9.88432
G1 X98.504 Y81.253 E9.90803
G1 X98.236 Y81.780 E9.92269
G1 X97.325 Y80.869 E9.95466
G1 X96.822 Y81.160 E9.96909
G1 X98.702 Y83.040 E10.03510
G1 X102.263 Y85.807 F7800.000
G1 X101.310 Y85.648 E10.05910 F720.000
G1 X102.263 Y86.601 E10.09257
G1 X102.263 Y87.396 E10.11229
G1 X96.318 Y81.450 E10.32100
G1 X95.814 Y81.741 E10.33543
G1 X102.263 Y88.190 E10.56182
G1 X102.263 Y88.984 E10.58154
G1 X95.311 Y82.032 E10.82561
G1 X94.807 Y82.323 E10.84005
G1 X102.263 Y89.779 E11.10179
G1 X102.263 Y90.573 E11.12151
G1 X94.304 Y82.613 E11.40094
G1 X94.158 Y83.262 E11.41744
G1 X102.263 Y91.368 E11.70198
G1 X102.263 Y92.162 E11.72170
G1 X94.158 Y84.057 E12.00624
G1 X94.158 Y84.851 E12.02596
G1 X102.263 Y92.956 E12.31050
G1 X102.263 Y93.751 E12.33022
G1 X94.158 Y85.645 E12.61475
G1 X94.158 Y86.440 E12.63447
G1 X102.263 Y94.545 E12.91901
G1 X102.263 Y95.339 E12.93873
G1 X94.158 Y87.234 E13.22327
G1 X94.158 Y88.028 E13.24299
G1 X102.263 Y96.134 E13.52752
G1 X102.263 Y96.928 E13.54724
G1 X94.158 Y88.823 E13.83178
G1 X94.158 Y89.617 E13.85150
G1 X102.263 Y97.723 E14.13604
G1 X102.263 Y98.517 E14.15576
G1 X94.158 Y90.412 E14.44030
G1 X94.158 Y91.206 E14.46001
G1 X102.263 Y99.311 E14.74455
G1 X102.263 Y100.106 E14.76427
G1 X94.158 Y92.000 E15.04881
G1 X94.158 Y92.795 E15.06853
G1 X102.263 Y100.900 E15.35307
G1 X102.263 Y101.695 E15.37279
G1 X94.158 Y93.589 E15.65732
G1 X94.158 Y94.383 E15.67704
G1 X102.263 Y102.489 E15.96158
G1 X102.263 Y103.283 E15.98130
G1 X94.158 Y95.178 E16.26584
G1 X94.158 Y95.972 E16.28556
G1 X102.263 Y104.078 E16.57009
G1 X102.263 Y104.872 E16.58981
G1 X94.158 Y96.767 E16.87435
G1 X94.158 Y97.561 E16.89407
G1 X102.263 Y105.666 E17.17861
G1 X102.263 Y106.461 E17.19833
G1 X94.158 Y98.355 E17.48287
G1 X94.158 Y99.150 E17.50258
G1 X102.263 Y107.255 E17.78712
G1 X102.263 Y108.050 E17.80684
G1 X94.158 Y99.944 E18.09138
G1 X94.158 Y100.739 E18.11110
G1 X102.263 Y108.844 E18.39564
G1 X102.263 Y109.638 E18.41535
G1 X94.158 Y101.533 E18.69989
G1 X94.158 Y102.327 E18.71961
G1 X102.263 Y110.433 E19.00415
G1 X102.263 Y111.227 E19.02387
G1 X94.158 Y103.122 E19.30841
G1 X94.158 Y103.916 E19.32813
G1 X102.263 Y112.021 E19.61266
G1 X102.263 Y112.816 E19.63238
G1 X94.158 Y104.710 E19.91692
G1 X94.158 Y105.505 E19.93664
G1 X102.263 Y113.610 E20.22118
G1 X102.263 Y114.405 E20.24090
G1 X94.158 Y106.299 E20.52543
G1 X94.158 Y107.094 E20.54515
G1 X102.263 Y115.199 E20.82969
G1 X102.263 Y115.993 E20.84941
G1 X94.158 Y107.888 E21.13395
G1 X94.158 Y108.682 E21.15367
G1 X102.263 Y116.788 E21.43821
G1 X102.263 Y117.582 E21.45792
G1 X94.158 Y109.477 E21.74246
G1 X94.158 Y110.271 E21.76218
G1 X102.122 Y118.235 E22.04175
G1 X101.327 Y118.235 E22.06147
G1 X94.158 Y111.065 E22.31315
G1 X94.158 Y111.860 E22.33287
G1 X100.533 Y118.235 E22.55666
G1 X99.739 Y118.235 E22.57638
G1 X94.158 Y112.654 E22.77229
G1 X94.158 Y113.449 E22.79201
G1 X98.944 Y118.235 E22.96003
G1 X98.150 Y118.235 E22.97974
G1 X94.158 Y114.243 E23.11988
G1 X94.158 Y115.037 E23.13960
G1 X97.356 Y118.235 E23.25185
G1 X96.561 Y118.235 E23.27156
G1 X94.158 Y115.832 E23.35593
G1 X94.158 Y116.626 E23.37564
G1 X95.767 Y118.235 E23.43212
G1 X94.972 Y118.235 E23.45184
G1 X94.158 Y117.421 E23.48043
G1 X94.158 Y118.215 E23.50015
G1 X94.178 Y118.235 E23.50085
G1 X102.785 Y85.787 F7800.000
G1 X102.767 Y85.770 E23.50120 F360.000
G1 X103.075 Y85.619 E23.50612 F360.000
G1 X102.895 Y85.439 E23.50978 F360.000
G1 X103.291 Y85.376 E23.51553 F360.000
G1 X103.366 Y85.452 E23.51706 F360.000
G1 X103.629 Y85.256 E23.52176 F360.000
G1 X103.657 Y85.284 E23.52232 F360.000
G1 X103.933 Y85.101 E23.52707 F360.000
G1 X103.941 Y85.108 E23.52722 F360.000
G1 F1800.000 E22.52722
G92 E0
G1 X99.480 Y79.936 F7800.000
G1 E1.00000 F1800.000
G1 X99.286 Y79.742 E1.00409 F360.000
G1 X99.582 Y79.560 E1.00926 F360.000
G1 X99.719 Y79.697 E1.01215 F360.000
G1 X99.957 Y79.459 E1.01718 F360.000
G1 X99.884 Y79.385 E1.01873 F360.000
G1 X100.187 Y79.211 E1.02393 F360.000
G1 X100.196 Y79.220 E1.02413 F360.000
G1 F1800.000 E0.02413
G92 E0
G1 Z0.600 F7800.000
G1 X100.756 Y79.806 F7800.000
G1 E1.00000 F1800.000
G1 X101.512 Y79.420 E1.01500 F1800
G1 X102.350 Y79.288 E1.03000
G1 X103.188 Y79.420 E1.04500
G1 X103.944 Y79.806 E1.06000
G1 X104.544 Y80.406 E1.07501
G1 X104.930 Y81.162 E1.09001
G1 X105.062 Y82.000 E1.10501
G1 X104.930 Y82.838 E1.12001
G1 X104.544 Y83.594 E1.13501
G1 X103.944 Y84.194 E1.15001
G1 X103.188 Y84.580 E1.16501
G1 X102.350 Y84.712 E1.18001
G1 X101.512 Y84.580 E1.19501
G1 X100.756 Y84.194 E1.21002
G1 X100.156 Y83.594 E1.22502
G1 X99.770 Y82.838 E1.24002
G1 X99.638 Y82.000 E1.25502
G1 X99.770 Y81.162 E1.27002
G1 X100.156 Y80.406 E1.28502
G1 X100.713 Y79.848 E1.29896
G1 X100.994 Y80.133 F7800.000
G1 X101.637 Y79.805 E1.31172 F1800
G1 X102.350 Y79.693 E1.32448
G1 X103.063 Y79.805 E1.33725
G1 X103.706 Y80.133 E1.35001
G1 X104.217 Y80.644 E1.36277
G1 X104.545 Y81.287 E1.37553
G1 X104.657 Y82.000 E1.38829
G1 X104.545 Y82.713 E1.40105
G1 X104.217 Y83.356 E1.41381
G1 X103.706 Y83.867 E1.42657
G1 X103.063 Y84.195 E1.43934
G1 X102.350 Y84.307 E1.45210
G1 X101.637 Y84.195 E1.46486
G1 X100.994 Y83.867 E1.47762
G1 X100.483 Y83.356 E1.49038
G1 X100.155 Y82.713 E1.50314
G1 X100.043 Y82.000 E1.51590
G1 X100.155 Y81.287 E1.52867
G1 X100.483 Y80.644 E1.54143
G1 X100.951 Y80.176 E1.55313
G1 X101.232 Y80.461 F7800.000
G1 X101.762 Y80.191 E1.56365 F1800
G1 X102.350 Y80.098 E1.57417
G1 X102.938 Y80.191 E1.58469
G1 X103.468 Y80.461 E1.59521
G1 X103.889 Y80.882 E1.60574
G1 X104.159 Y81.412 E1.61626
G1 X104.252 Y82.000 E1.62678
G1 X104.159 Y82.588 E1.63730
G1 X103.889 Y83.118 E1.64782
G1 X103.468 Y83.539 E1.65834
G1 X102.938 Y83.809 E1.66887
G1 X102.350 Y83.902 E1.67939
G1 X101.762 Y83.809 E1.68991
G1 X101.232 Y83.539 E1.70043
G1 X100.811 Y83.118 E1.71095
G1 X100.541 Y82.588 E1.72147
G1 X100.448 Y82.000 E1.73200
G1 X100.541 Y81.412 E1.74252
G1 X100.811 Y80.882 E1.75304
G1 X101.189 Y80.503 E1.76250
G1 X101.211 Y80.061 F7800.000
G1 X100.162 Y78.298 F7800.000
G1 X100.881 Y77.963 E1.77651 F1800
G1 X101.604 Y77.769 E1.78975
G1 X102.350 Y77.704 E1.80299
G1 X103.096 Y77.769 E1.81622
G1 X103.819 Y77.963 E1.82946
G1 X104.498 Y78.279 E1.84270
G1 X105.112 Y78.709 E1.85594
G1 X105.641 Y79.238 E1.86917
G1 X106.071 Y79.852 E1.88241
G1 X106.387 Y80.531 E1.89565
G1 X106.581 Y81.254 E1.90889
G1 X106.646 Y82.000 E1.92212
G1 X106.581 Y82.746 E1.93536
G1 X106.387 Y83.469 E1.94860
G1 X106.071 Y84.148 E1.96184
G1 X105.641 Y84.762 E1.97507
G1 X105.112 Y85.291 E1.98831
G1 X104.462 Y85.746 E2.00232
G1 X103.350 Y86.388 E2.02503
G1 X103.350 Y120.103 E2.62099
G1 X93.350 Y120.103 E2.79776
G1 X93.350 Y82.231 E3.46720
G1 X100.110 Y78.328 E3.60519
G1 X99.977 Y77.943 F7800.000
G1 X100.743 Y77.586 E3.62012 F1800
G1 X101.534 Y77.374 E3.63460
G1 X102.350 Y77.302 E3.64907
G1 X103.166 Y77.374 E3.66355
G1 X103.957 Y77.586 E3.67802
G1 X104.699 Y77.932 E3.69250
G1 X105.370 Y78.401 E3.70697
G1 X105.949 Y78.980 E3.72145
G1 X106.418 Y79.651 E3.73592
G1 X106.764 Y80.393 E3.75040
G1 X106.976 Y81.184 E3.76487
G1 X107.048 Y82.000 E3.77935
G1 X106.976 Y82.816 E3.79382
G1 X106.764 Y83.607 E3.80830
G1 X106.418 Y84.349 E3.82277
G1 X105.949 Y85.020 E3.83724
G1 X105.370 Y85.599 E3.85172
G1 X104.677 Y86.083 E3.86666
G1 X103.750 Y86.619 E3.88559
G1 X103.750 Y120.321 E4.48133
G1 X103.750 Y120.503 E4.48469 F3600
G1 X92.950 Y120.503 E4.68461
G1 X92.950 Y120.321 E4.68797
G1 X92.950 Y82.000 E5.36536 F1800
G1 X99.925 Y77.973 E5.50773
G1 X99.792 Y77.588 F7800.000
G1 X100.606 Y77.208 E5.52360 F1260
G1 X101.465 Y76.978 E5.53931
G1 X102.350 Y76.901 E5.55502
G1 X103.235 Y76.978 E5.57074
G1 X104.094 Y77.208 E5.58645
G1 X104.900 Y77.584 E5.60216
G1 X105.628 Y78.094 E5.61787
G1 X106.256 Y78.722 E5.63358
G1 X106.766 Y79.450 E5.64929
G1 X107.142 Y80.256 E5.66501
