; generated by Slic3r 1.0.0RC3 on 2014-10-27 at 15:44:50

; layer_height = 0.3
; perimeters = 3
; top_solid_layers = 3
; bottom_solid_layers = 2
; fill_density = 0.4
; perimeter_speed = 30
; infill_speed = 40
; travel_speed = 80
; nozzle_diameter = 0.4
; filament_diameter = 2.94
; extrusion_multiplier = 1
; perimeters extrusion width = 0.40mm
; infill extrusion width = 0.42mm
; solid infill extrusion width = 0.42mm
; top infill extrusion width = 0.42mm
; first layer extrusion width = 0.60mm

G21 ; set units to millimeters
G92 X100 Y100 Z0
G90 ; use absolute coordinates
G92 E0
M82 ; use absolute distances for extrusion
G1 F1800.000 E-1.00000
G92 E0
G1 Z0.300 F4800.000
G1 X81.970 Y76.491 F4800.000
G1 E1.00000 F1800.000
G1 X83.050 Y75.601 E1.03445 F540.000
G1 X84.280 Y74.951 E1.06870
G1 X85.610 Y74.541 E1.10296
G1 X87.000 Y74.411 E1.13733
G1 X113.000 Y74.411 E1.77740
G1 X114.390 Y74.541 E1.81177
G1 X115.720 Y74.951 E1.84603
G1 X116.950 Y75.601 E1.88028
G1 X118.030 Y76.491 E1.91473
G1 X118.920 Y77.571 E1.94918
G1 X119.570 Y78.801 E1.98343
G1 X119.980 Y80.131 E2.01770
G1 X120.110 Y81.521 E2.05206
G1 X120.110 Y119.331 E2.98287
G1 X120.090 Y119.891 E2.99667
G1 X120.040 Y120.521 E3.01223
G1 X119.860 Y121.661 E3.04064
G1 X119.710 Y122.271 E3.05610
G1 X119.370 Y123.291 E3.08257
G1 X119.130 Y123.871 E3.09802
G1 X118.630 Y124.861 E3.12533
G1 X118.300 Y125.401 E3.14091
G1 X117.590 Y126.371 E3.17050
G1 X117.180 Y126.841 E3.18585
G1 X116.500 Y127.521 E3.20953
G1 X116.030 Y127.931 E3.22488
G1 X115.060 Y128.641 E3.25448
G1 X114.520 Y128.971 E3.27006
G1 X113.530 Y129.471 E3.29736
G1 X112.950 Y129.711 E3.31281
G1 X111.820 Y130.071 E3.34201
G1 X111.210 Y130.211 E3.35742
G1 X110.180 Y130.371 E3.38308
G1 X109.550 Y130.421 E3.39863
G1 X108.990 Y130.441 E3.41243
G1 X91.000 Y130.441 E3.85531
G1 X90.440 Y130.421 E3.86910
G1 X89.810 Y130.371 E3.88466
G1 X88.780 Y130.211 E3.91032
G1 X88.170 Y130.071 E3.92573
G1 X87.040 Y129.711 E3.95493
G1 X86.460 Y129.471 E3.97038
G1 X85.470 Y128.971 E3.99768
G1 X84.930 Y128.641 E4.01326
G1 X83.960 Y127.931 E4.04285
G1 X83.490 Y127.521 E4.05821
G1 X82.810 Y126.841 E4.08188
G1 X82.400 Y126.371 E4.09724
G1 X81.690 Y125.401 E4.12683
G1 X81.360 Y124.861 E4.14241
G1 X80.840 Y123.831 E4.17082
G1 X80.600 Y123.241 E4.18650
G1 X80.290 Y122.291 E4.21110
G1 X80.140 Y121.691 E4.22632
G1 X80.010 Y121.051 E4.24240
G1 X79.940 Y120.411 E4.25825
G1 X79.900 Y119.781 E4.27379
G1 X79.890 Y81.521 E5.21568
G1 X80.020 Y80.131 E5.25005
G1 X80.430 Y78.801 E5.28431
G1 X81.080 Y77.571 E5.31856
G1 X81.917 Y76.555 E5.35095
G1 X82.360 Y76.881 F4800.000
G1 X83.360 Y76.071 E5.38263 F540.000
G1 X84.490 Y75.461 E5.41424
G1 X85.720 Y75.091 E5.44587
G1 X87.000 Y74.961 E5.47754
G1 X113.000 Y74.961 E6.11761
G1 X114.280 Y75.091 E6.14928
G1 X115.510 Y75.461 E6.18090
G1 X116.640 Y76.071 E6.21251
G1 X117.640 Y76.881 E6.24420
G1 X118.450 Y77.881 E6.27588
G1 X119.060 Y79.011 E6.30749
G1 X119.430 Y80.241 E6.33911
G1 X119.560 Y81.521 E6.37078
G1 X119.560 Y119.331 E7.30159
G1 X119.540 Y119.851 E7.31440
G1 X119.490 Y120.481 E7.32996
G1 X119.320 Y121.531 E7.35615
G1 X119.170 Y122.141 E7.37161
G1 X118.860 Y123.081 E7.39598
G1 X118.620 Y123.661 E7.41143
G1 X118.160 Y124.571 E7.43653
G1 X117.830 Y125.111 E7.45211
G1 X117.170 Y126.001 E7.47939
G1 X116.760 Y126.471 E7.49474
G1 X116.130 Y127.101 E7.51668
G1 X115.660 Y127.511 E7.53203
G1 X114.770 Y128.171 E7.55931
G1 X114.230 Y128.501 E7.57489
G1 X113.320 Y128.961 E7.59999
G1 X112.740 Y129.201 E7.61544
G1 X111.700 Y129.531 E7.64230
G1 X111.090 Y129.671 E7.65771
G1 X110.140 Y129.821 E7.68139
G1 X109.510 Y129.871 E7.69695
G1 X108.990 Y129.891 E7.70976
G1 X91.000 Y129.891 E8.15264
G1 X89.850 Y129.821 E8.18100
G1 X88.900 Y129.671 E8.20468
G1 X88.290 Y129.531 E8.22008
G1 X87.250 Y129.201 E8.24694
G1 X86.670 Y128.961 E8.26240
G1 X85.760 Y128.501 E8.28750
G1 X85.220 Y128.171 E8.30308
G1 X84.330 Y127.511 E8.33036
G1 X83.860 Y127.101 E8.34571
G1 X83.230 Y126.471 E8.36764
G1 X82.820 Y126.001 E8.38300
G1 X82.160 Y125.111 E8.41028
G1 X81.830 Y124.571 E8.42586
G1 X81.360 Y123.621 E8.45195
G1 X81.120 Y123.031 E8.46763
G1 X80.830 Y122.151 E8.49044
G1 X80.560 Y120.971 E8.52024
G1 X80.500 Y120.381 E8.53484
G1 X80.440 Y119.331 E8.56073
G1 X80.440 Y81.521 E9.49154
G1 X80.570 Y80.241 E9.52321
G1 X80.940 Y79.011 E9.55483
G1 X81.550 Y77.881 E9.58644
G1 X82.307 Y76.945 E9.61607
G1 F1800.000 E8.61607
G92 E0
G1 X94.461 Y90.075 F4800.000
G1 E1.00000 F1800.000
G1 X105.539 Y90.075 E1.27273 F540.000
G1 X105.539 Y106.574 E1.67889
G1 X94.461 Y106.574 E1.95161
G1 X94.461 Y90.159 E2.35572
G1 X95.018 Y90.632 F4800.000
G1 X104.982 Y90.632 E2.60102 F540.000
G1 X104.982 Y106.017 E2.97975
G1 X95.018 Y106.017 E3.22505
G1 X95.018 Y90.716 E3.60172
G1 X95.575 Y91.190 F4800.000
G1 X104.425 Y91.190 E3.81959 F378.000
G1 X104.425 Y105.460 E4.17089
G1 X95.575 Y105.460 E4.38876
G1 X95.575 Y91.273 E4.73801
G1 X95.575 Y90.632 F4800.000
G1 X92.000 Y109.936 F4800.000
G1 X93.297 Y110.194 E4.77056 F540.000
G1 X94.396 Y110.929 E4.80311
G1 X95.131 Y112.028 E4.83566
G1 X95.372 Y113.240 E4.86609
G1 X95.372 Y117.409 E4.96872
G1 X95.131 Y118.621 E4.99915
G1 X94.396 Y119.721 E5.03170
G1 X93.297 Y120.455 E5.06425
G1 X92.000 Y120.713 E5.09680
G1 X90.703 Y120.455 E5.12935
G1 X89.604 Y119.721 E5.16190
G1 X88.869 Y118.621 E5.19445
G1 X88.628 Y117.409 E5.22488
G1 X88.628 Y113.240 E5.32751
G1 X88.869 Y112.028 E5.35794
G1 X89.604 Y110.929 E5.39049
G1 X90.703 Y110.194 E5.42304
G1 X91.918 Y109.952 E5.45353
G1 X92.000 Y110.504 F4800.000
G1 X93.079 Y110.719 E5.48063 F540.000
G1 X93.995 Y111.330 E5.50772
G1 X94.606 Y112.245 E5.53481
G1 X94.815 Y113.295 E5.56116
G1 X94.815 Y117.354 E5.66109
G1 X94.606 Y118.404 E5.68744
G1 X93.995 Y119.319 E5.71454
G1 X93.079 Y119.931 E5.74163
G1 X92.000 Y120.145 E5.76873
G1 X90.921 Y119.931 E5.79582
G1 X90.005 Y119.319 E5.82291
G1 X89.394 Y118.404 E5.85001
G1 X89.185 Y117.354 E5.87636
G1 X89.185 Y113.295 E5.97629
G1 X89.394 Y112.245 E6.00264
G1 X90.005 Y111.330 E6.02973
G1 X90.921 Y110.719 E6.05683
G1 X91.918 Y110.520 E6.08186
G1 X92.309 Y110.041 F4800.000
G1 X104.869 Y112.028 F4800.000
G1 X105.604 Y110.929 E6.11441 F540.000
G1 X105.756 Y110.827 E6.11891
G1 X106.703 Y110.194 E6.14696
G1 X108.000 Y109.936 E6.17951
G1 X109.297 Y110.194 E6.21206
G1 X110.396 Y110.929 E6.24461
G1 X111.131 Y112.028 E6.27716
G1 X111.372 Y113.240 E6.30759
G1 X111.372 Y117.409 E6.41022
G1 X111.131 Y118.621 E6.44065
G1 X110.396 Y119.721 E6.47320
G1 X109.297 Y120.455 E6.50575
G1 X108.000 Y120.713 E6.53830
G1 X106.703 Y120.455 E6.57085
G1 X105.604 Y119.721 E6.60340
G1 X104.869 Y118.621 E6.63595
G1 X104.628 Y117.409 E6.66638
G1 X104.628 Y113.240 E6.76901
G1 X104.853 Y112.110 E6.79738
G1 X105.394 Y112.245 F4800.000
G1 X106.005 Y111.330 E6.82448 F540.000
G1 X106.065 Y111.290 E6.82625
G1 X106.921 Y110.719 E6.85157
G1 X108.000 Y110.504 E6.87866
G1 X109.079 Y110.719 E6.90576
G1 X109.935 Y111.290 E6.93108
G1 X109.995 Y111.330 E6.93285
G1 X110.606 Y112.245 E6.95995
G1 X110.815 Y113.295 E6.98630
G1 X110.815 Y117.354 E7.08623
G1 X110.606 Y118.404 E7.11258
G1 X109.995 Y119.319 E7.13967
G1 X109.079 Y119.931 E7.16676
G1 X108.000 Y120.145 E7.19386
G1 X106.921 Y119.931 E7.22095
G1 X106.005 Y119.319 E7.24805
G1 X105.394 Y118.404 E7.27514
G1 X105.185 Y117.354 E7.30149
G1 X105.185 Y113.295 E7.40142
G1 X105.378 Y112.327 E7.42572
G1 X105.085 Y111.782 F4800.000
G1 X104.508 Y111.566 F4800.000
G1 X104.345 Y111.811 E7.43294 F540.000
G1 X104.071 Y113.185 E7.46745
G1 X104.071 Y117.464 E7.57278
G1 X104.345 Y118.839 E7.60729
G1 X105.202 Y120.122 E7.64530
G1 X106.486 Y120.980 E7.68330
G1 X108.000 Y121.281 E7.72131
G1 X109.514 Y120.980 E7.75931
G1 X110.798 Y120.122 E7.79732
G1 X111.351 Y119.294 E7.82185
G1 X111.628 Y119.415 E7.82930
G1 X111.455 Y120.137 E7.84758
G1 X111.300 Y120.511 E7.85755
G1 X111.088 Y120.857 E7.86752
G1 X110.825 Y121.165 E7.87749
G1 X110.517 Y121.428 E7.88747
G1 X110.172 Y121.640 E7.89744
G1 X109.798 Y121.795 E7.90741
G1 X109.404 Y121.889 E7.91738
G1 X108.944 Y121.925 E7.92873
G1 X91.056 Y121.925 E8.36912
G1 X90.596 Y121.889 E8.38046
G1 X90.202 Y121.795 E8.39043
G1 X89.828 Y121.640 E8.40041
G1 X89.483 Y121.428 E8.41038
G1 X89.175 Y121.165 E8.42035
G1 X88.912 Y120.857 E8.43032
G1 X88.700 Y120.511 E8.44030
G1 X88.545 Y120.137 E8.45027
G1 X88.372 Y119.415 E8.46855
G1 X88.649 Y119.294 E8.47599
G1 X89.202 Y120.122 E8.50053
G1 X90.486 Y120.980 E8.53853
G1 X92.000 Y121.281 E8.57654
G1 X93.514 Y120.980 E8.61455
G1 X94.798 Y120.122 E8.65255
G1 X95.655 Y118.839 E8.69056
G1 X95.929 Y117.464 E8.72507
G1 X95.929 Y113.185 E8.83040
G1 X95.655 Y111.811 E8.86490
G1 X94.798 Y110.527 E8.90291
G1 X93.514 Y109.669 E8.94091
G1 X92.000 Y109.368 E8.97892
G1 X90.486 Y109.669 E9.01693
G1 X89.202 Y110.527 E9.05493
G1 X88.580 Y111.458 E9.08250
G1 X88.414 Y111.408 E9.08677
G1 X88.414 Y82.937 E9.78767
G1 X111.586 Y82.937 E10.35812
G1 X111.586 Y111.408 E11.05902
G1 X111.420 Y111.458 E11.06328
G1 X110.798 Y110.527 E11.09086
G1 X109.514 Y109.669 E11.12886
G1 X108.000 Y109.368 E11.16687
G1 X106.486 Y109.669 E11.20488
G1 X105.202 Y110.527 E11.24288
G1 X104.554 Y111.497 E11.27160
G1 F1800.000 E10.27160
G92 E0
G1 X112.143 Y119.306 F4800.000
G1 E1.00000 F1800.000
G1 X112.102 Y119.831 E1.01296 F540.000
G1 X111.987 Y120.310 E1.02509
G1 X111.798 Y120.765 E1.03722
G1 X111.541 Y121.185 E1.04936
G1 X111.220 Y121.560 E1.06149
G1 X110.846 Y121.880 E1.07362
G1 X110.426 Y122.137 E1.08575
G1 X109.970 Y122.326 E1.09788
G1 X109.491 Y122.441 E1.11001
G1 X108.966 Y122.482 E1.12297
G1 X91.034 Y122.482 E1.56444
G1 X90.509 Y122.441 E1.57740
G1 X90.030 Y122.326 E1.58953
G1 X89.574 Y122.137 E1.60166
G1 X89.154 Y121.880 E1.61380
G1 X88.779 Y121.560 E1.62593
G1 X88.459 Y121.185 E1.63806
G1 X88.202 Y120.765 E1.65019
G1 X88.013 Y120.310 E1.66232
G1 X87.898 Y119.831 E1.67445
G1 X87.857 Y119.306 E1.68741
G1 X87.857 Y82.380 E2.59646
G1 X112.143 Y82.380 E3.19433
G1 X112.143 Y119.222 E4.10132
G1 X112.700 Y119.328 F4800.000
G1 X112.654 Y119.918 E4.11590 F378.000
G1 X112.518 Y120.483 E4.13019
G1 X112.296 Y121.019 E4.14448
G1 X111.993 Y121.514 E4.15877
G1 X111.616 Y121.955 E4.17306
G1 X111.174 Y122.332 E4.18735
G1 X110.679 Y122.635 E4.20164
G1 X110.143 Y122.857 E4.21593
G1 X109.579 Y122.993 E4.23022
G1 X108.988 Y123.039 E4.24480
G1 X91.012 Y123.039 E4.68735
G1 X90.421 Y122.993 E4.70193
G1 X89.857 Y122.857 E4.71622
G1 X89.321 Y122.635 E4.73051
G1 X88.826 Y122.332 E4.74480
G1 X88.384 Y121.955 E4.75909
G1 X88.007 Y121.514 E4.77338
G1 X87.704 Y121.019 E4.78767
G1 X87.482 Y120.483 E4.80196
G1 X87.346 Y119.918 E4.81624
G1 X87.300 Y119.328 E4.83083
G1 X87.300 Y81.823 E5.75413
G1 X112.700 Y81.823 E6.37943
G1 X112.700 Y119.244 E7.30067
G1 X112.204 Y119.581 F4800.000
G1 F1800.000 E6.30067
G92 E0
G1 X96.070 Y111.875 F4800.000
G1 E1.00000 F1800.000
G1 X105.448 Y121.253 E1.32887 F720.000
G1 X104.654 Y121.253 E1.34855
G1 X96.267 Y112.866 E1.64267
G1 X96.323 Y113.715 E1.66378
G1 X103.860 Y121.253 E1.92812
G1 X103.067 Y121.253 E1.94780
G1 X96.323 Y114.509 E2.18430
G1 X96.323 Y115.302 E2.20398
G1 X102.273 Y121.253 E2.41266
G1 X101.480 Y121.253 E2.43234
G1 X96.323 Y116.096 E2.61319
G1 X96.323 Y116.890 E2.63286
G1 X100.686 Y121.253 E2.78588
G1 X99.893 Y121.253 E2.80556
G1 X96.293 Y117.653 E2.93180
G1 X96.161 Y118.315 E2.94853
G1 X99.099 Y121.253 E3.05156
G1 X98.305 Y121.253 E3.07124
G1 X96.030 Y118.977 E3.15105
G1 X95.716 Y119.457 E3.16527
G1 X97.512 Y121.253 E3.22824
G1 X96.718 Y121.253 E3.24792
G1 X95.398 Y119.933 E3.29421
G1 X95.080 Y120.408 E3.30840
G1 X95.925 Y121.253 E3.33803
G1 X95.131 Y121.253 E3.35771
G1 X94.604 Y120.726 E3.37620
G1 X94.312 Y121.228 E3.39060
G1 X94.337 Y121.253 E3.39147
G1 F1800.000 E2.39147
G92 E0
G1 X93.449 Y109.255 F4800.000
G1 E1.00000 F1800.000
G1 X88.808 Y104.613 E1.16277 F720.000
G1 X88.808 Y103.820 E1.18245
G1 X103.972 Y118.983 E1.71423
G1 X103.775 Y117.993 E1.73928
G1 X88.808 Y103.026 E2.26414
G1 X88.808 Y102.233 E2.28382
G1 X103.677 Y117.102 E2.80527
G1 X103.677 Y116.308 E2.82495
G1 X88.808 Y101.439 E3.34640
G1 X88.808 Y100.645 E3.36608
G1 X94.067 Y105.904 E3.55051
G1 X94.067 Y105.111 E3.57019
G1 X88.808 Y99.852 E3.75462
G1 X88.808 Y99.058 E3.77429
G1 X94.067 Y104.317 E3.95872
G1 X94.067 Y103.524 E3.97840
G1 X88.808 Y98.265 E4.16283
G1 X88.808 Y97.471 E4.18251
G1 X94.067 Y102.730 E4.36694
G1 X94.067 Y101.937 E4.38661
G1 X88.808 Y96.678 E4.57104
G1 X88.808 Y95.884 E4.59072
G1 X94.067 Y101.143 E4.77515
G1 X94.067 Y100.349 E4.79483
G1 X88.808 Y95.090 E4.97925
G1 X88.808 Y94.297 E4.99893
G1 X94.067 Y99.556 E5.18336
G1 X94.067 Y98.762 E5.20304
G1 X88.808 Y93.503 E5.38747
G1 X88.808 Y92.710 E5.40715
G1 X94.067 Y97.969 E5.59157
G1 X94.067 Y97.175 E5.61125
G1 X88.808 Y91.916 E5.79568
G1 X88.808 Y91.123 E5.81536
G1 X94.067 Y96.381 E5.99979
G1 X94.067 Y95.588 E6.01947
G1 X88.808 Y90.329 E6.20389
G1 X88.808 Y89.535 E6.22357
G1 X94.067 Y94.794 E6.40800
G1 X94.067 Y94.001 E6.42768
G1 X88.808 Y88.742 E6.61211
G1 X88.808 Y87.948 E6.63178
G1 X94.067 Y93.207 E6.81621
G1 X94.067 Y92.414 E6.83589
G1 X88.808 Y87.155 E7.02032
G1 X88.808 Y86.361 E7.04000
G1 X94.067 Y91.620 E7.22443
G1 X94.067 Y90.826 E7.24410
G1 X88.808 Y85.567 E7.42853
G1 X88.808 Y84.774 E7.44821
G1 X94.067 Y90.033 E7.63264
G1 X94.509 Y89.682 E7.64664
G1 X88.808 Y83.980 E7.84658
G1 X88.952 Y83.331 E7.86308
G1 X95.303 Y89.682 E8.08581
G1 X96.096 Y89.682 E8.10549
G1 X89.745 Y83.331 E8.32821
G1 X90.539 Y83.331 E8.34789
G1 X96.890 Y89.682 E8.57061
G1 X97.684 Y89.682 E8.59029
G1 X91.333 Y83.331 E8.81301
G1 X92.126 Y83.331 E8.83269
G1 X98.477 Y89.682 E9.05541
G1 X99.271 Y89.682 E9.07509
G1 X92.920 Y83.331 E9.29782
G1 X93.713 Y83.331 E9.31749
G1 X100.064 Y89.682 E9.54022
G1 X100.858 Y89.682 E9.55990
G1 X94.507 Y83.331 E9.78262
G1 X95.300 Y83.331 E9.80230
G1 X101.651 Y89.682 E10.02502
G1 X102.445 Y89.682 E10.04470
G1 X96.094 Y83.331 E10.26742
G1 X96.888 Y83.331 E10.28710
G1 X103.239 Y89.682 E10.50982
G1 X104.032 Y89.682 E10.52950
G1 X97.681 Y83.331 E10.75223
G1 X98.475 Y83.331 E10.77190
G1 X104.826 Y89.682 E10.99463
G1 X105.619 Y89.682 E11.01431
G1 X99.268 Y83.331 E11.23703
G1 X100.062 Y83.331 E11.25671
G1 X111.192 Y94.461 E11.64703
G1 X111.192 Y93.667 E11.66671
G1 X100.856 Y83.331 E12.02920
G1 X101.649 Y83.331 E12.04888
G1 X111.192 Y92.873 E12.38354
G1 X111.192 Y92.080 E12.40322
G1 X102.443 Y83.331 E12.71005
G1 X103.236 Y83.331 E12.72973
G1 X111.192 Y91.286 E13.00873
G1 X111.192 Y90.493 E13.02841
G1 X104.030 Y83.331 E13.27958
G1 X104.823 Y83.331 E13.29926
G1 X111.192 Y89.699 E13.52260
G1 X111.192 Y88.906 E13.54228
G1 X105.617 Y83.331 E13.73779
G1 X106.411 Y83.331 E13.75746
G1 X111.192 Y88.112 E13.92514
G1 X111.192 Y87.318 E13.94482
G1 X107.204 Y83.331 E14.08467
G1 X107.998 Y83.331 E14.10435
G1 X111.192 Y86.525 E14.21637
G1 X111.192 Y85.731 E14.23605
G1 X108.791 Y83.331 E14.32024
G1 X109.585 Y83.331 E14.33992
G1 X111.192 Y84.938 E14.39628
G1 X111.192 Y84.144 E14.41596
G1 X110.378 Y83.331 E14.44449
G1 X111.172 Y83.331 E14.46417
G1 X111.192 Y83.351 E14.46486
G1 X105.933 Y89.995 F4800.000
G1 X111.192 Y95.254 E14.64929 F720.000
G1 X111.192 Y96.048 E14.66897
G1 X105.933 Y90.789 E14.85340
G1 X105.933 Y91.582 E14.87308
G1 X111.192 Y96.841 E15.05751
G1 X111.192 Y97.635 E15.07718
G1 X105.933 Y92.376 E15.26161
G1 X105.933 Y93.170 E15.28129
G1 X111.192 Y98.429 E15.46572
G1 X111.192 Y99.222 E15.48540
G1 X105.933 Y93.963 E15.66982
G1 X105.933 Y94.757 E15.68950
G1 X111.192 Y100.016 E15.87393
G1 X111.192 Y100.809 E15.89361
G1 X105.933 Y95.550 E16.07804
G1 X105.933 Y96.344 E16.09772
G1 X111.192 Y101.603 E16.28214
G1 X111.192 Y102.396 E16.30182
G1 X105.933 Y97.137 E16.48625
G1 X105.933 Y97.931 E16.50593
G1 X111.192 Y103.190 E16.69036
G1 X111.192 Y103.984 E16.71004
G1 X105.933 Y98.725 E16.89446
G1 X105.933 Y99.518 E16.91414
G1 X111.192 Y104.777 E17.09857
G1 X111.192 Y105.571 E17.11825
G1 X105.933 Y100.312 E17.30268
G1 X105.933 Y101.105 E17.32235
G1 X111.192 Y106.364 E17.50678
G1 X111.192 Y107.158 E17.52646
G1 X105.933 Y101.899 E17.71089
G1 X105.933 Y102.692 E17.73057
G1 X111.192 Y107.951 E17.91500
G1 X111.192 Y108.745 E17.93467
G1 X105.933 Y103.486 E18.11910
G1 X105.933 Y104.280 E18.13878
